canopy-logomark.svg

<?xml version="1.0" encoding="UTF-8" standalone="no"?>
<svg width="28px" height="32px" viewBox="0 0 28 32" version="1.1" xmlns="http://www.w3.org/2000/svg" xmlns:xlink="http://www.w3.org/1999/xlink" xmlns:sketch="http://www.bohemiancoding.com/sketch/ns">
    <!-- Generator: Sketch 3.3.3 (12072) - http://www.bohemiancoding.com/sketch -->
    <title>Imported Layers Copy</title>
    <desc>Created with Sketch.</desc>
    <defs></defs>
    <g id="Page-1" stroke="none" stroke-width="1" fill="none" fill-rule="evenodd" sketch:type="MSPage">
        <g id="Tasks-Resting" sketch:type="MSArtboardGroup" transform="translate(-175.000000, -129.000000)">
            <g id="Imported-Layers-Copy" sketch:type="MSLayerGroup" transform="translate(175.000000, 129.000000)">
                <path d="M21.8006667,19.566 L21.8006667,14.792 C21.8026667,12.7513333 20.7053333,10.8513333 18.938,9.83133333 L9.018,4.10533333 C8.13533333,3.59466667 7.146,3.33933333 6.15533333,3.33933333 C5.16533333,3.33933333 4.17533333,3.59466667 3.292,4.10533333 C1.52333333,5.12466667 0.426666667,7.024 0.428666667,9.06466667 L0.428666667,20.5186667 C0.426666667,22.5593333 1.52333333,24.458 3.292,25.478 L13.2106667,31.2053333 C14.094,31.716 15.084,31.9706667 16.074,31.9706667 C17.064,31.9706667 18.0546667,31.716 18.938,31.204 C20.7053333,30.186 21.8026667,28.2853333 21.8006667,26.2446667 L21.8006667,22.624 L18.7826667,24.366 L11.956,20.424 C10.1893333,19.404 9.09333333,17.5053333 9.09466667,15.4653333 L9.09466667,7.63333333 L15.9213333,11.5753333 C17.688,12.594 18.784,14.4946667 18.7826667,16.534 L18.7826667,21.308 L21.8006667,19.566 M18.4,27.63 C18.166,28.022 17.8353333,28.3573333 17.426,28.592 C17.0186667,28.8273333 16.5506667,28.9526667 16.074,28.9526667 C15.5973333,28.9526667 15.1293333,28.8286667 14.72,28.592 L6.30933333,23.736 C4.54133333,22.716 3.44466667,20.816 3.44666667,18.7766667 L3.44666667,9.062 C3.44533333,8.09866667 3.964,7.202 4.80266667,6.71733333 C5.188,6.494 5.62733333,6.37466667 6.07666667,6.362 L6.07666667,17.2073333 C6.07533333,19.248 7.17266667,21.1486667 8.94,22.168 L18.4,27.63" id="Fill-1" fill="#4CAF50" sketch:type="MSShapeGroup"></path>
                <path d="M24.586,6.52133333 L14.6666667,0.794 C13.784,0.284 12.794,0.0286666667 11.804,0.0286666667 C10.8133333,0.0286666667 9.82333333,0.284 8.94,0.795333333 L7.764,1.496 C7.764,1.496 9.108,1.10333333 10.6673333,1.97 C11.5133333,2.44066667 14.02,3.906 14.02,3.906 L21.6046667,8.28533333 C23.196,9.20333333 24.24,10.836 24.4313333,12.642 L24.4313333,18.0473333 L27.4486667,16.3046667 L27.4486667,11.4813333 C27.4506667,9.44066667 26.354,7.54133333 24.586,6.52133333" id="Fill-2" fill="#4CAF50" sketch:type="MSShapeGroup"></path>
                <path d="M24.4313333,21.1053333 L24.4313333,25.8106667 C24.4313333,27.596 22.902,28.9846667 22.902,28.9846667 L24.4313333,27.9766667 L24.586,27.8946667 C26.354,26.8746667 27.4506667,24.9753333 27.4486667,22.934 L27.4486667,19.3633333 L24.4313333,21.1053333" id="Fill-3" fill="#4CAF50" sketch:type="MSShapeGroup"></path>
                <path d="M6.15533333,6.35666667 L6.07666667,6.362 L6.07666667,9.576 L9.09466667,11.318 L9.09466667,7.63333333 L7.504,6.71666667 C7.096,6.48066667 6.63,6.35666667 6.15533333,6.35666667" id="Fill-4" fill="#2F963E" sketch:type="MSShapeGroup"></path>
            </g>
        </g>
    </g>
</svg>

<svg xmlns="http://www.w3.org/2000/svg" viewBox="0 0 28 32">
  <g fill="none" fill-rule="evenodd">
    <path fill="#4CAF50" d="M21.8 19.566v-4.774c.003-2.04-1.095-3.94-2.862-4.96l-9.92-5.727c-.883-.51-1.872-.766-2.863-.766-.99 0-1.98.25-2.863.76C1.522 5.12.427 7.02.43 9.06v11.46c-.003 2.04 1.093 3.938 2.862 4.958l9.92 5.727c.882.51 1.872.766 2.862.766s1.98-.25 2.864-.76c1.767-1.02 2.865-2.92 2.863-4.96v-3.62l-3.01 1.74-6.82-3.94c-1.767-1.02-2.863-2.92-2.86-4.96V7.64l6.825 3.94c1.768 1.02 2.864 2.92 2.863 4.96v4.773l3.02-1.74m-3.4 8.063c-.235.394-.566.73-.975.964-.405.234-.873.36-1.35.36s-.945-.124-1.354-.36l-8.41-4.857c-1.77-1.02-2.867-2.92-2.865-4.96v-9.72c0-.962.518-1.86 1.357-2.344.385-.23.824-.35 1.274-.36v10.85c0 2.04 1.096 3.94 2.863 4.96l9.46 5.46"/>
    <path fill="#4CAF50" d="M24.586 6.52L14.666.795c-.88-.51-1.87-.765-2.86-.765S9.823.283 8.94.794l-1.176.7s1.344-.392 2.903.475c.846.47 3.353 1.93 3.353 1.93l7.585 4.38c1.59.91 2.635 2.55 2.826 4.35v5.403l3.02-1.74v-4.82c0-2.04-1.09-3.94-2.86-4.96M24.44 21.1v4.707c0 1.79-1.527 3.18-1.527 3.18l1.53-1.01.154-.08c1.768-1.02 2.865-2.92 2.863-4.96v-3.574l-3.02 1.742"/>
    <path fill="#2F963E" d="M6.155 6.357l-.078.005v3.214l3.018 1.742V7.633l-1.59-.916c-.41-.236-.875-.36-1.35-.36"/>
  </g>
</svg>
